X:1
T:Beviamo tutti
T:Beviamo tutti
T:Felice Giardini
T:Source : Collection of Catches, Canons and Glees---London---Longman & Broderip--- 1762-64. Editor: André Vierendeels (12/05/14).
T:Notes : Original clefs : G2, G2, F4 (C4, C4, F4) Music selected by Thomas Warren
T:Glee
C:Felice Giardini
%%score [ 1 2 3 ]
L:1/8
Q:1/4=120
M:4/4
K:Bb
V:1 treble-8 nm="Tenor 1" snm="T 1"
V:2 treble-8 nm="Tenor 2" snm="T 2"
V:3 bass nm="Bass" snm="B"
V:1
 z4 B4 | c2 B2 c2 A2 | B4 d2 cB | c2 c2 z4 | z8 | z8 | f8- | f8- | f4 B2 B2 | A2 Ad cB AG | %10
w: Be-|via- mo tut- ti|tre u- no'a la|vol- ta|||hav|_|* ob- li-|ga- to Si- gno- * ri _|
 F4 d2 d2 | c2 c2 B2 B2 | A2 A2 z4 | z8 | z4 g2 g2 | f2 f2 e2 e2 | d2 d2 d3 d | e2 e2 f3 f | %18
w: miei, vi- va,|vi- va bra- vo,|bra- vo||vi- va,|vi- va bra- vo,|bra- vo oh che|gu- sto, oh che|
 g2 g2 e2 d2 | ce df e2 dc | df eg f2 ed | c2 c2 f2 f2 | f8- | f2 ed e2 fe | d2 d2 e4 | %25
w: gus- to star al-|le- * * * * * *||* gri, star al-|le-||* gri e|
 d2 B2 c2 A2 | B4 e4 | d2 B2 c2 A2 | B2 g2 f2 e2 | d4 c4 | B8 |] %31
w: be- ver del bon|Vin, e|be- ver del bon|Vin, e be- ver|del bon|Vin.|
V:2
 z4 F4 | G2 F2 G2 F2 | F4 z4 | z4 B2 B2 | A2 A2 z4 | z8 | z4 d2 d2 | c2 c2 B2 B2 | A2 A2 z4 | z8 | %10
w: Be-|via- mo tut- ti|tre|vo- glio|be- ne||vi- va,|vi- va bra- vo,|bra- vo||
 f8- | f8- | f4 e2 e2 | d2 cB c2 A2 | B4 e2 e2 | d2 d2 c2 c2 | B2 B2 B3 B | B2 B2 B3 B | %18
w: hav|_|* o- bli-|ga- to Si- gno- ri|miei, vi- va,|vi- va bra- vo,|bra- vo oh che|gu- sto, oh che|
 B2 B2 c2 B2 | Ac Bd c2 BA | Bd ce d2 cB | A2 A2 d2 d2 | d8- | d2 cB c2 dc | B2 B2 B4 | %25
w: gus- to star al-|le- * * * * * *||* gri, star al-|le-||* gri e|
 B2 B2 A2 c2 | B4 B4 | B2 B2 A2 c2 | B2 B2 B2 B2 | B4 A4 | B8 |] %31
w: be- ver del bon|Vin, e|be- ver del bon|Vin, e be- ver|del bon|Vin.|
V:3
 z4 D,4 | E,2 D,2 E,2 F,2 | B,,4 z4 | z8 | z4 B,2 C2 | F,4 z4 | z4 B,2 B,2 | A,2 A,2 G,2 G,2 | %8
w: Be-|via- mo tut- ti|tre||Si- gnor|si|vi- va,|vi- va bra- vo,|
 F,2 F,2 z4 | z8 | z4 B,2 B,2 | A,2 A,2 G,2 G,2 | F,2 F,2 z4 | z8 | B,8- | B,8- | B,4 _A,3 A, | %17
w: bra- vo||vi- va,|vi- va bra- vo,|bra- vo||hav|_|* oh che|
 G,2 G,2 D,3 D, | E,2 E,2 E,2 =E,2 | F,8- | F,8- | F,2 F,2 B,,2 B,,2 | B,,2 C,D, E,F, G,A, | %23
w: gus- to, oh che|gus- to star al-|le-||* gri, star al-|le- * * * * * *|
 B,2 B,2 F,2 F,2 | G,2 G,2 G,4 | F,2 D,2 E,2 C,2 | D,4 G,4 | F,2 D,2 E,2 C,2 | D,2 E,2 D,2 E,2 | %29
w: * gri, star al-|le- gri e|be- ver del bon|Vin, e|be- ver del bon|Vin, e be- ver|
 F,4 F,4 | B,,8 |] %31
w: del bon|Vin.|

